X: 20752
T: The GIRL THAT I LOVE IS A MORTAL LIKE ME.
C: Urquhart.
Q: "Moderate."
%R: air, jig
B: W. Hamilton "Universal Tune-Book" Vol. 2 Glasgow 1846 p.75 #2
S: http://s3-eu-west-1.amazonaws.com/itma.dl.printmaterial/book_pdfs/hamiltonvol2web.pdf
Z: 2016 John Chambers <jc:trillian.mit.edu>
M: 6/8
L: 1/8
K: G
%%stretchstaff 0
% - - - - - - - - - - - - - - - - - - - - - - - - -
d |\
d>ed gdc | B>cd G2(G/F/) | E>FG Ace | G>FG {B}A2A |\
A>BA Adf | G>AG e2(d/^c/) | d^cB A2(D/E/) | F>GE D2 |]
d |\
b>ag a>gf | g>fe d2(c/B/) | c>de E<cA | G>FG {B}A2d |\
dBd g>ab | efg HgHf d/d/ | g>fe {d}d{c}B{A}G | B>cA G2 |]
% - - - - - - - - - - - - - - - - - - - - - - - - -

%%sep 1 1 500
%%sep 1 1 500

